symbols/web/looks_5/materialsymbolssharp/looks_5_wght500grad200fill1_20px.svg

<svg xmlns="http://www.w3.org/2000/svg" height="20" width="20"><path d="M7.167 14.458h5.666V8.875H9.438V7.833h3.395V5.542H7.167v5.625h3.395v1H7.167Zm-5.292 3.667V1.875h16.25v16.25Z"/></svg>

<svg xmlns="http://www.w3.org/2000/svg" height="20" width="20"><path d="M7.167 14.458H12.833V8.875H9.438V7.833H12.833V5.542H7.167V11.167H10.562V12.167H7.167ZM1.875 18.125V1.875H18.125V18.125Z"/></svg>
